X:90
T: Windy Gap
S: "The Roche Collection of Traditional Irish Music" [I/61/154]
L: 1/8
M: 4/4
R: reel
K: D
AG | FD D2 FD D2 | FABc dBAG | FD D2 FD D2 | FAAF E2 E2 |
FD D2 FD D2 | FABc d2 de | fdec dB A2 | B2 AF E2 E2 ||
B2 Bc B2 AF | A2 Bc dBAG | FD D2 FD D2 | FAAF E2 E2 |
B2 Bc B2 AF | A2 Bc d2 de | fdec dB A2 | B2 AF E2 |]
